data/playwrite-vn.svg

<svg width="119.15" height="35.168" viewBox="0 0 119.15 35.168" xmlns="http://www.w3.org/2000/svg"><path transform="translate(0 24.402) scale(.014 -.014)" d="m544 486q-17-1-26 10t-9 29q0 19 7 28.5t23 10.5q78 3 144.5 22t119.5 51.5 90 77.5 56.5 100 19.5 119q0 62-24.5 109.5t-70.5 80-113 49-152 16.5q-113 0-203.5-22.5t-162-68.5-129.5-114q-11-12-24.5-13t-28.5 11q-16 13-17 26.5t9 25.5q45 57 102.5 101t128 74.5 153 46.5 176.5 16q108 0 191.5-22.5t140.5-66 87-105.5 30-142q0-77-23.5-143.5t-68.5-121-108.5-94-143-63-174.5-28.5zm-295-504q-48 0-87.5 17.5t-68 45-44.5 54.5q-11 18-10 32t17 25q18 11 30.5 8.5t25.5-18.5q20-25 41-43t45-27.5 55-9.5q52 0 76 41t24 126v809q0 14 11 21t32 7q22 0 33-7t11-21v-819q0-75-21-129t-63.5-83-106.5-29z"/><path transform="translate(15.54 24.402) scale(.014 -.014)" d="m-57-17q-19 0-28 11.5t-9 26 9 26 28 11.5q32 0 62.5 17.5t60 51 57 80.5 52 106 45.5 127.5 38 145 29 159.5 18.5 170 6.5 175q0 17 13 26t30 9 30-9 13-26q0-92-7.5-183.5t-22.5-179-35.5-170-46-156.5-56-138.5-64-116-70.5-88-75.5-56-77.5-19.5zm278 0q-26 0-45 7t-30.5 20-17 32.5-5.5 43.5v995q0 97 36 146t106 49q45 0 74.5-21t44-62 14.5-103q0-19-13-28t-30-9-30 9-13 28q0 37-5.5 60t-16.5 34.5-28 11.5q-18 0-30-11.5t-17.5-37-5.5-66.5v-985q0-13 4-21.5t11-12.5 16-4 16.5 3 14.5 8.5 14 10.5q8 7 18 2.5t17-12.5q8-10 8.5-20t-4.5-19q-11-15-28-26t-36-16.5-39-5.5z"/><path transform="translate(21.056 24.402) scale(.014 -.014)" d="m258-17q-57 0-101 27.5t-69 83.5-25 141q0 52 9.5 96t28.5 79 46 59 62 37 77 13q32 0 66-10.5t64-27.5v5q0 15 11 22t33 7 32.5-6.5 10.5-20.5v-392q0-13 4-21.5t11-12.5 16-4q10 0 16.5 2.5t13 7.5 15.5 12q7 6 16 3.5t18-10.5q9-10 10-21t-4-19q-11-16-28-27t-36.5-17-39.5-6q-23 0-40 5t-29 15.5-18.5 25.5-9.5 34q0 1-1 4.5t-1 7.5q-23-37-49.5-57t-54.5-27.5-54-7.5zm-107 256q0-55 13-94.5t39.5-60.5 66.5-21q29 0 55.5 10t49.5 33 41 60v242q-31 19-60 25.5t-61 6.5q-26 0-48-8t-40-24-30.5-40-19-56-6.5-73z"/><path transform="translate(29.764 24.402) scale(.014 -.014)" d="m485-55q16 15 32 28.5t31.5 25.5 29.5 22 25 17q14 9 26 4t18.5-18 4.5-26.5-16-22.5q-13-8-29-20.5t-34-27.5-36.5-31-35.5-30zm-153-721q-49 0-85 21t-55.5 60.5-19.5 97.5q0 50 11 104t34 110.5 57.5 112.5 81.5 108q19 19 38.5 37.5t40.5 35.5v166q-13-22-30.5-39.5t-38.5-29.5-45.5-18.5-51.5-6.5q-58 0-97 20.5t-58.5 61-19.5 101.5v323q0 13 10.5 19.5t31.5 6.5q22 0 33-6.5t11-19.5v-323q0-35 11-59t33.5-36 55.5-12q28 0 52 9t43.5 24.5 34.5 37.5 25 47v312q0 13 10.5 19.5t32.5 6.5q21 0 32-6.5t11-19.5v-1020q0-58-12.5-103.5t-37-77-60-48-79.5-16.5zm5 76q24 0 42 11.5t30.5 33 19 53.5 6.5 72v337q-13-10-26-20.5t-25-22.5q-29-36-51.5-80t-38.5-90.5-24.5-94-8.5-92.5q0-33 9-57.5t26-37 41-12.5z"/><path transform="translate(38.724 24.402) scale(.014 -.014)" d="m279-17q-39 0-67.5 12t-48 36.5-29 62-9.5 89.5v186q0 42-13 56.5t-36 14.5q-16 0-28-9t-18.5-26-8.5-40q-1-16-9-23.5t-26-7.5q-16 0-26 7t-9 33q2 43 17.5 74.5t43.5 49 64 17.5q35 0 60.5-10t42-31 24.5-52 8-73v-143q0-39 3-67t12-45.5 25.5-26 42.5-8.5q20 0 42 7.5t41 26.5 30.5 52.5 11.5 84.5l29-120q-12-31-29.5-55t-40-40-47.5-24-52-8zm305-2q-40 0-70.5 13t-51.5 39-32 65-11 91v300q0 13 10.5 19.5t31.5 6.5q22 0 33-6.5t11-19.5v-283q0-39 3.5-67t13-45 26.5-25 45-8q19 0 36 4.5t31.5 15 26 27 19.5 40 12.5 55 4.5 71.5q0 81-8.5 125t-22.5 61.5-33 17.5q-18 0-24.5-10.5t-6.5-22.5q0-13 10-26t35.5-21 70.5-8q38 0 72 16t70 39q12 8 22 2t16.5-18 6-24.5-9.5-18.5q-43-30-83.5-46t-93.5-16q-61 0-101 15.5t-59 43-19 62.5q0 27 11 47.5t32 32 51 11.5q53 0 86-34t48.5-93 15.5-135q0-46-6.5-85.5t-19-72-31-57.5-43.5-42.5-56.5-26.5-68.5-9z"/><path transform="translate(51.156 24.402) scale(.014 -.014)" d="m-55-17q-19 0-28.5 11.5t-10 26 8.5 26 28 11.5q25 0 46.5 15.5t40 46 33.5 75.5 27 105 20 133l60-9q-9-112-27.5-195t-46.5-137.5-65.5-81.5-85.5-27zm515 0q-26 0-45 7t-31 20.5-18 34-6 46.5q0 28 2.5 64t5 74 5 72.5 2.5 59.5q0 39-9.5 53.5t-35.5 14.5q-21 0-46.5-6t-52-13.5-52.5-13.5-49-6q-45 0-77 16t-48.5 44.5-16.5 63.5q0 41 23 65t62 24q36 0 58-19t32-49.5 10-65.5q8 0 26 6.5t42.5 15.5 52 15.5 54.5 6.5q40 0 65-15t36.5-46.5 11.5-82.5q0-23-2.5-58.5t-5-75-5-74.5-2.5-58q0-26 7.5-35.5t22.5-9.5q10 0 18 3t15.5 8.5 14.5 10.5q8 6 18 2t17-12q8-10 8.5-20t-4.5-19q-11-15-27.5-26t-36-16.5-39.5-5.5zm-350 473q0 24-4 44t-12 32-20 12q-11 0-17.5-8t-6.5-23q0-20 16-38.5t44-18.5z"/><path transform="translate(59.108 24.402) scale(.014 -.014)" d="m193-17q-52 0-75.5 27t-23.5 76v403q0 13 10.5 19.5t31.5 6.5q22 0 33-6.5t11-19.5v-393q0-20 9-29t22-9q11 0 18.5 3.5t14 8.5 14.5 11q6 5 16.5 1t16.5-12q8-9 9-19t-5-18q-11-16-27.5-27t-36-17-38.5-6zm-55 686q-28 0-42.5 15.5t-14.5 46.5q0 32 14.5 48t42.5 16q27 0 41-16t14-48q1-31-13.5-46.5t-41.5-15.5z"/><path transform="translate(63.308 24.402) scale(.014 -.014)" d="m243-17q-42 0-69.5 15.5t-41 44-13.5 68.5v309h-78q-15 0-21 9t-6 31q0 23 6 31.5t21 8.5h78v204q0 13 10.5 19.5t31.5 6.5q22 0 33-6.5t11-19.5v-204h126q15 0 21.5-8.5t6.5-31.5q0-22-6.5-31t-21.5-9h-126v-299q0-34 9.5-48.5t34.5-14.5q23 0 39.5 11t34.5 27q12 11 22.5 7.5t19.5-12.5q11-10 11.5-20.5t-5.5-19.5q-17-25-38-40t-44-21.5-46-6.5z"/><path transform="translate(68.74 24.402) scale(.014 -.014)" d="m300-17q-40 0-77.5 17t-69 48-55 73.5-36.5 93-13 106.5q0 34 8 64.5t23 55 36 42 47 27 56 9.5q57 0 92.5-23t51.5-60.5 16-80.5q0-34-12.5-70t-34.5-70.5-51-66.5q-43-48-98-85.5t-116.5-58.5-126.5-21q-14 0-21 11.5t-5.5 26 12.5 26 33 11.5q46 0 94.5 18t92.5 48 75 65q22 25 37.5 51.5t23.5 53.5 8 52q0 53-20 73.5t-54 20.5q-17 0-31.5-7.5t-25.5-23-17-37.5-6-51q0-57 16.5-104.5t43.5-81.5 57.5-53 57.5-19q19 0 37 7.5t37.5 22.5 39.5 37q14 16 27 15.5t27-11.5 16.5-23-6.5-26q-25-38-58.5-60.5t-67.5-32-63-9.5z"/><path transform="translate(79.156 24.402) scale(.014 -.014)" d="m710-17q-22 0-36 7.5t-18 27.5q-39 222-75.5 395t-71.5 303-70 220.5-71.5 146.5-74 81.5-79.5 25.5q-31 0-52-14t-32-40.5-11-62.5q0-25 5-51.5t13-51.5q5-17-2-27t-26-16-31.5-0.5-18.5 22.5q-11 33-18 64t-7 61q0 44 12 81t35 63 56.5 40 76.5 14q55 0 103-23.5t91.5-75.5 83.5-137 77.5-208 73.5-287.5 72-376.5q38 196 71 350t63.5 270.5 60 200 60 139.5 64 88.5 70.5 46 81 13.5q27 0 55-6.5t54-18.5 46-28q17-13 17-26.5t-12-29.5q-10-14-22.5-16.5t-26.5 7.5q-16 11-33.5 19t-36 12.5-36.5 4.5q-33 0-62-15t-55-49-52-93.5-53-148-58-211.5-67.5-285.5-80.5-369.5q-4-22-16.5-28.5t-35.5-6.5z"/><path transform="translate(98.14 24.402) scale(.014 -.014)" d="m256-17q-60 0-101.5 28.5t-63 79.5-21.5 115q0 47 9.5 93t27.5 87q7 16 20.5 21.5t31.5-2.5q20-8 26.5-19t0.5-27q-13-34-20-72t-7-71q0-48 11.5-82t34-51.5 56.5-17.5q35 0 63 17.5t49 56 34.5 100.5 20.5 149.5 7 204.5v640q0 16 11.5 23t32.5 7 32.5-6.5 17.5-20.5l525-1035v696q0 95 16 165t47 116.5 78 70 110 23.5q34 0 69-10.5t67.5-29 56.5-41.5q11-10 10-23.5t-13-28.5q-12-14-24-15.5t-25 7.5q-30 25-69.5 42t-73.5 17q-41 0-71-16.5t-50-51.5-30-90.5-10-134.5v-880q0-16-11-23.5t-33-7.5q-11 0-19 2t-14 8.5-12 17.5l-530 1044v-466q0-130-10-230t-31-172-52.5-118-74.5-67.5-99-21.5z"/></svg>

<?xml version="1.0" encoding="utf-8" ?>
<svg baseProfile="tiny" height="100%" version="1.2" width="100%" xmlns="http://www.w3.org/2000/svg" xmlns:ev="http://www.w3.org/2001/xml-events" xmlns:xlink="http://www.w3.org/1999/xlink"><defs /><g><path d="M544 486Q527 485 518.0 496.0Q509 507 509 525Q509 544 516.0 553.5Q523 563 539 564Q617 567 683.5 586.0Q750 605 803.0 637.5Q856 670 893.0 715.0Q930 760 949.5 815.0Q969 870 969 934Q969 996 944.5 1043.5Q920 1091 874.0 1123.5Q828 1156 761.0 1172.5Q694 1189 609 1189Q496 1189 405.5 1166.5Q315 1144 243.5 1098.0Q172 1052 114 984Q103 972 89.5 971.0Q76 970 61 982Q45 995 44.0 1008.5Q43 1022 53 1034Q98 1091 155.5 1135.0Q213 1179 283.5 1209.5Q354 1240 436.5 1256.0Q519 1272 613 1272Q721 1272 804.5 1249.5Q888 1227 945.0 1183.5Q1002 1140 1032.0 1078.0Q1062 1016 1062 936Q1062 859 1038.5 792.5Q1015 726 970.0 671.5Q925 617 861.5 577.5Q798 538 718.5 514.5Q639 491 544 486ZM249 -18Q201 -18 161.5 -0.5Q122 17 93.5 44.5Q65 72 49 99Q38 117 39.0 131.0Q40 145 56 156Q74 167 86.5 164.5Q99 162 112 146Q132 121 153.0 103.0Q174 85 198.0 75.5Q222 66 253 66Q305 66 329.0 107.0Q353 148 353 233V1042Q353 1056 364.0 1063.0Q375 1070 396 1070Q418 1070 429.0 1063.0Q440 1056 440 1042V223Q440 148 419.0 94.0Q398 40 355.5 11.0Q313 -18 249 -18Z" transform="translate(0.0, 72) scale(0.072, -0.072)" /><path d="M-57 -17Q-76 -17 -85.0 -5.5Q-94 6 -94.0 20.5Q-94 35 -85.0 46.5Q-76 58 -57 58Q-25 58 5.5 75.5Q36 93 65.5 126.5Q95 160 122.5 207.0Q150 254 174.5 313.0Q199 372 220.0 440.5Q241 509 258.0 585.5Q275 662 287.0 745.0Q299 828 305.5 915.0Q312 1002 312 1090Q312 1107 325.0 1116.0Q338 1125 355.0 1125.0Q372 1125 385.0 1116.0Q398 1107 398 1090Q398 998 390.5 906.5Q383 815 368.0 727.5Q353 640 332.5 557.5Q312 475 286.5 401.0Q261 327 230.5 262.5Q200 198 166.5 146.5Q133 95 96.0 58.5Q59 22 20.5 2.5Q-18 -17 -57 -17ZM221 -17Q195 -17 176.0 -10.0Q157 -3 145.5 10.0Q134 23 128.5 42.5Q123 62 123 86V1081Q123 1178 159.0 1227.0Q195 1276 265 1276Q310 1276 339.5 1255.0Q369 1234 383.5 1193.0Q398 1152 398 1090Q398 1071 385.0 1062.0Q372 1053 355.0 1053.0Q338 1053 325.0 1062.0Q312 1071 312 1090Q312 1127 306.5 1150.0Q301 1173 290.0 1184.5Q279 1196 262 1196Q244 1196 232.0 1184.5Q220 1173 214.5 1147.5Q209 1122 209 1081V96Q209 83 213.0 74.5Q217 66 224.0 62.0Q231 58 240 58Q249 58 256.5 61.0Q264 64 271.0 69.5Q278 75 285 80Q293 87 303.0 82.5Q313 78 320 70Q328 60 328.5 50.0Q329 40 324 31Q313 16 296.0 5.0Q279 -6 260.0 -11.5Q241 -17 221 -17Z" transform="translate(79.91999999999999, 72) scale(0.072, -0.072)" /><path d="M258 -17Q201 -17 157.0 10.5Q113 38 88.0 94.0Q63 150 63 235Q63 287 72.5 331.0Q82 375 101.0 410.0Q120 445 147.0 469.0Q174 493 209.0 506.0Q244 519 286 519Q318 519 352.0 508.5Q386 498 416 481V486Q416 501 427.0 508.0Q438 515 460 515Q482 515 492.5 508.5Q503 502 503 488V96Q503 83 507.0 74.5Q511 66 518.0 62.0Q525 58 534 58Q544 58 550.5 60.5Q557 63 563.5 68.0Q570 73 579 80Q586 86 595.0 83.5Q604 81 613 73Q622 63 623.0 52.0Q624 41 619 33Q608 17 591.0 6.0Q574 -5 554.5 -11.0Q535 -17 515 -17Q492 -17 475.0 -12.0Q458 -7 446.0 3.5Q434 14 427.5 29.0Q421 44 418 63Q418 64 417.0 67.5Q416 71 416 75Q393 38 366.5 18.0Q340 -2 312.0 -9.5Q284 -17 258 -17ZM151 239Q151 184 164.0 144.5Q177 105 203.5 84.0Q230 63 270 63Q299 63 325.5 73.0Q352 83 375.0 106.0Q398 129 416 166V408Q385 427 356.0 433.5Q327 440 295 440Q269 440 247.0 432.0Q225 424 207.0 408.0Q189 392 176.5 368.0Q164 344 157.5 312.0Q151 280 151 239Z" transform="translate(108.28799999999998, 72) scale(0.072, -0.072)" /><path d="M485 -55Q501 -40 517.0 -26.5Q533 -13 548.5 -1.0Q564 11 578.0 21.0Q592 31 603 38Q617 47 629.0 42.0Q641 37 647.5 24.0Q654 11 652.0 -2.5Q650 -16 636 -25Q623 -33 607.0 -45.5Q591 -58 573.0 -73.0Q555 -88 536.5 -104.0Q518 -120 501 -134ZM332 -776Q283 -776 247.0 -755.0Q211 -734 191.5 -694.5Q172 -655 172 -597Q172 -547 183.0 -493.0Q194 -439 217.0 -382.5Q240 -326 274.5 -270.0Q309 -214 356 -162Q375 -143 394.5 -124.5Q414 -106 435 -89V77Q422 55 404.5 37.5Q387 20 366.0 8.0Q345 -4 320.5 -10.5Q296 -17 269 -17Q211 -17 172.0 3.5Q133 24 113.5 64.5Q94 105 94 166V489Q94 502 104.5 508.5Q115 515 136 515Q158 515 169.0 508.5Q180 502 180 489V166Q180 131 191.0 107.0Q202 83 224.5 71.0Q247 59 280 59Q308 59 332.0 68.0Q356 77 375.5 92.5Q395 108 410.0 130.0Q425 152 435 177V489Q435 502 445.5 508.5Q456 515 478 515Q499 515 510.0 508.5Q521 502 521 489V-531Q521 -589 508.5 -634.5Q496 -680 471.5 -711.5Q447 -743 411.5 -759.5Q376 -776 332 -776ZM337 -700Q361 -700 379.0 -688.5Q397 -677 409.5 -655.5Q422 -634 428.5 -602.0Q435 -570 435 -530V-193Q422 -203 409.0 -213.5Q396 -224 384 -236Q355 -272 332.5 -316.0Q310 -360 294.0 -406.5Q278 -453 269.5 -500.5Q261 -548 261 -593Q261 -626 270.0 -650.5Q279 -675 296.0 -687.5Q313 -700 337 -700Z" transform="translate(153.07199999999997, 72) scale(0.072, -0.072)" /><path d="M279 -17Q240 -17 211.5 -5.0Q183 7 163.5 31.5Q144 56 134.5 93.5Q125 131 125 183V369Q125 411 112.0 425.5Q99 440 76 440Q60 440 48.0 431.0Q36 422 29.5 405.0Q23 388 21 365Q20 349 12.0 341.5Q4 334 -14 334Q-30 334 -40.0 341.0Q-50 348 -49 374Q-47 417 -31.5 448.5Q-16 480 12.0 497.5Q40 515 76 515Q111 515 136.5 505.0Q162 495 178.5 474.0Q195 453 203.0 422.0Q211 391 211 349V206Q211 167 214.0 139.0Q217 111 226.0 93.5Q235 76 251.5 67.5Q268 59 294 59Q314 59 336.0 66.5Q358 74 377.0 93.0Q396 112 407.5 145.5Q419 179 419 230L448 110Q436 79 418.5 55.0Q401 31 378.5 15.0Q356 -1 331.0 -9.0Q306 -17 279 -17ZM584 -19Q544 -19 513.5 -6.0Q483 7 462.0 33.0Q441 59 430.0 98.0Q419 137 419 189V489Q419 502 429.5 508.5Q440 515 461 515Q483 515 494.0 508.5Q505 502 505 489V206Q505 167 508.5 139.0Q512 111 521.5 94.0Q531 77 548.0 69.0Q565 61 593 61Q612 61 629.0 65.5Q646 70 660.5 80.5Q675 91 686.5 107.5Q698 124 706.0 147.5Q714 171 718.5 202.5Q723 234 723 274Q723 355 714.5 399.0Q706 443 692.0 460.5Q678 478 659 478Q641 478 634.5 467.5Q628 457 628 445Q628 432 638.0 419.0Q648 406 673.5 398.0Q699 390 744 390Q782 390 816.0 406.0Q850 422 886 445Q898 453 908.0 447.0Q918 441 924.5 429.0Q931 417 930.5 404.5Q930 392 921 386Q878 356 837.5 340.0Q797 324 744 324Q683 324 643.0 339.5Q603 355 584.0 382.5Q565 410 565 445Q565 472 576.0 492.5Q587 513 608.0 524.5Q629 536 659 536Q712 536 745.0 502.0Q778 468 793.5 409.0Q809 350 809 274Q809 228 802.5 188.5Q796 149 783.5 116.5Q771 84 752.5 59.0Q734 34 709.0 16.5Q684 -1 652.5 -10.0Q621 -19 584 -19Z" transform="translate(199.152, 72) scale(0.072, -0.072)" /><path d="M-55 -17Q-74 -17 -83.5 -5.5Q-93 6 -93.5 20.5Q-94 35 -85.0 46.5Q-76 58 -57 58Q-32 58 -10.5 73.5Q11 89 29.5 119.5Q48 150 63.0 195.0Q78 240 90.0 300.0Q102 360 110 433L170 424Q161 312 142.5 229.0Q124 146 96.0 91.5Q68 37 30.5 10.0Q-7 -17 -55 -17ZM460 -17Q434 -17 415.0 -10.0Q396 -3 384.0 10.5Q372 24 366.0 44.5Q360 65 360 91Q360 119 362.5 155.0Q365 191 367.5 229.0Q370 267 372.5 301.5Q375 336 375 361Q375 400 365.5 414.5Q356 429 330 429Q309 429 283.5 423.0Q258 417 231.5 409.5Q205 402 179.0 396.0Q153 390 130 390Q85 390 53.0 406.0Q21 422 4.5 450.5Q-12 479 -12 514Q-12 555 11.0 579.0Q34 603 73 603Q109 603 131.0 584.0Q153 565 163.0 534.5Q173 504 173 469Q181 469 199.0 475.5Q217 482 241.5 491.0Q266 500 293.5 506.5Q321 513 348 513Q388 513 413.0 498.0Q438 483 449.5 451.5Q461 420 461 369Q461 346 458.5 310.5Q456 275 453.5 235.5Q451 196 448.5 161.0Q446 126 446 103Q446 77 453.5 67.5Q461 58 476 58Q486 58 494.0 61.0Q502 64 509.5 69.5Q517 75 524 80Q532 86 542.0 82.0Q552 78 559 70Q567 60 567.5 50.0Q568 40 563 31Q552 16 535.5 5.0Q519 -6 499.5 -11.5Q480 -17 460 -17ZM110 456Q110 480 106.0 500.0Q102 520 94.0 532.0Q86 544 74 544Q63 544 56.5 536.0Q50 528 50 513Q50 493 66.0 474.5Q82 456 110 456Z" transform="translate(263.08799999999997, 72) scale(0.072, -0.072)" /><path d="M193 -17Q141 -17 117.5 10.0Q94 37 94 86V489Q94 502 104.5 508.5Q115 515 136 515Q158 515 169.0 508.5Q180 502 180 489V96Q180 76 189.0 67.0Q198 58 211 58Q222 58 229.5 61.5Q237 65 243.5 70.0Q250 75 258 81Q264 86 274.5 82.0Q285 78 291 70Q299 61 300.0 51.0Q301 41 295 33Q284 17 267.5 6.0Q251 -5 231.5 -11.0Q212 -17 193 -17ZM138 669Q110 669 95.5 684.5Q81 700 81 731Q81 763 95.5 779.0Q110 795 138 795Q165 795 179.0 779.0Q193 763 193 731Q194 700 179.5 684.5Q165 669 138 669Z" transform="translate(303.984, 72) scale(0.072, -0.072)" /><path d="M243 -17Q201 -17 173.5 -1.5Q146 14 132.5 42.5Q119 71 119 111V420H41Q26 420 20.0 429.0Q14 438 14 460Q14 483 20.0 491.5Q26 500 41 500H119V704Q119 717 129.5 723.5Q140 730 161 730Q183 730 194.0 723.5Q205 717 205 704V500H331Q346 500 352.5 491.5Q359 483 359 460Q359 438 352.5 429.0Q346 420 331 420H205V121Q205 87 214.5 72.5Q224 58 249 58Q272 58 288.5 69.0Q305 80 323 96Q335 107 345.5 103.5Q356 100 365 91Q376 81 376.5 70.5Q377 60 371 51Q354 26 333.0 11.0Q312 -4 289.0 -10.5Q266 -17 243 -17Z" transform="translate(325.584, 72) scale(0.072, -0.072)" /><path d="M300 -17Q260 -17 222.5 0.0Q185 17 153.5 48.0Q122 79 98.5 121.5Q75 164 62.0 214.5Q49 265 49 321Q49 355 57.0 385.5Q65 416 80.0 440.5Q95 465 116.0 482.5Q137 500 163.0 509.5Q189 519 219 519Q276 519 311.5 496.0Q347 473 363.0 435.5Q379 398 379 355Q379 321 366.5 285.0Q354 249 332.0 214.5Q310 180 281 148Q238 100 183.0 62.5Q128 25 66.5 4.0Q5 -17 -60 -17Q-74 -17 -81.0 -5.5Q-88 6 -86.5 20.5Q-85 35 -74.0 46.5Q-63 58 -41 58Q5 58 53.5 76.0Q102 94 146.0 124.0Q190 154 221 189Q243 214 258.5 240.5Q274 267 282.0 294.0Q290 321 290 346Q290 399 270.0 419.5Q250 440 216 440Q199 440 184.5 432.5Q170 425 159.0 409.5Q148 394 142.0 372.0Q136 350 136 321Q136 264 152.5 216.5Q169 169 196.0 135.0Q223 101 253.5 82.0Q284 63 311 63Q330 63 348.0 70.5Q366 78 385.5 93.0Q405 108 425 130Q439 146 452.0 145.5Q465 145 479 134Q493 123 495.5 111.0Q498 99 489 85Q464 47 430.5 24.5Q397 2 363.0 -7.5Q329 -17 300 -17Z" transform="translate(353.52, 72) scale(0.072, -0.072)" /><path d="M710 -17Q688 -17 674.0 -9.5Q660 -2 656 18Q617 240 580.5 413.0Q544 586 509.0 716.0Q474 846 439.0 936.5Q404 1027 367.5 1083.0Q331 1139 293.5 1164.5Q256 1190 214 1190Q183 1190 162.0 1176.0Q141 1162 130.0 1135.5Q119 1109 119 1073Q119 1048 124.0 1021.5Q129 995 137 970Q142 953 135.0 943.0Q128 933 109 927Q90 921 77.5 926.5Q65 932 59 949Q48 982 41.0 1013.0Q34 1044 34 1074Q34 1118 46.0 1155.0Q58 1192 81.0 1218.0Q104 1244 137.5 1258.0Q171 1272 214 1272Q269 1272 317.0 1248.5Q365 1225 408.5 1173.0Q452 1121 492.0 1036.0Q532 951 569.5 828.0Q607 705 643.0 540.5Q679 376 715 164Q753 360 786.0 514.0Q819 668 849.5 784.5Q880 901 909.5 984.5Q939 1068 969.5 1124.0Q1000 1180 1033.5 1212.5Q1067 1245 1104.0 1258.5Q1141 1272 1185 1272Q1212 1272 1240.0 1265.5Q1268 1259 1294.0 1247.0Q1320 1235 1340 1219Q1357 1206 1357.0 1192.5Q1357 1179 1345 1163Q1335 1149 1322.5 1146.5Q1310 1144 1296 1154Q1280 1165 1262.5 1173.0Q1245 1181 1226.5 1185.5Q1208 1190 1190 1190Q1157 1190 1128.0 1175.0Q1099 1160 1073.0 1126.0Q1047 1092 1021.0 1032.5Q995 973 968.0 884.5Q941 796 910.0 673.0Q879 550 842.5 387.5Q806 225 762 18Q758 -4 745.5 -10.5Q733 -17 710 -17Z" transform="translate(407.088, 72) scale(0.072, -0.072)" /><path d="M256 -17Q196 -17 154.5 11.5Q113 40 91.5 91.0Q70 142 70 206Q70 253 79.5 299.0Q89 345 107 386Q114 402 127.5 407.5Q141 413 159 405Q179 397 185.5 386.0Q192 375 186 359Q173 325 166.0 287.0Q159 249 159 216Q159 168 170.5 134.0Q182 100 204.5 82.5Q227 65 261 65Q296 65 324.0 82.5Q352 100 373.0 138.5Q394 177 407.5 239.0Q421 301 428.0 388.5Q435 476 435 593V1233Q435 1249 446.5 1256.0Q458 1263 479 1263Q500 1263 511.5 1256.5Q523 1250 529 1236L1054 201V897Q1054 992 1070.0 1062.0Q1086 1132 1117.0 1178.5Q1148 1225 1195.0 1248.5Q1242 1272 1305 1272Q1339 1272 1374.0 1261.5Q1409 1251 1441.5 1232.5Q1474 1214 1498 1191Q1509 1181 1508.0 1167.5Q1507 1154 1495 1139Q1483 1125 1471.0 1123.5Q1459 1122 1446 1131Q1416 1156 1376.5 1173.0Q1337 1190 1303 1190Q1262 1190 1232.0 1173.5Q1202 1157 1182.0 1122.0Q1162 1087 1152.0 1031.5Q1142 976 1142 897V17Q1142 1 1131.0 -6.5Q1120 -14 1098 -14Q1087 -14 1079.0 -12.0Q1071 -10 1065.0 -3.5Q1059 3 1053 14L523 1058V592Q523 462 513.0 362.0Q503 262 482.0 190.0Q461 118 429.5 72.0Q398 26 355.0 4.5Q312 -17 256 -17Z" transform="translate(504.72, 72) scale(0.072, -0.072)" /></g></svg>
